X:187
M:6/8
L:1/8
K:G
|:d2f f2g|gdB dBG|(c/d/e)c Aag|fed e^cA|a(f/g/a) g2e|f2d e^cA|(B/^c/d)F Edc|d3 D3|
=c2c cec|B2B BdB|AFA Agc|dBG AFD|E2(C C)EG|F2(D D)B,G,|(B/c/d)B cAF|G3 G,3:|

